X: 162
T: a Trip to Georgia
T: Longways &c.
%R:
B: Daniel Wright "Wright's Compleat Collection of Celebrated Country Dances" 1740 p.81
S: http://library.efdss.org/cgi-bin/dancebooks.cgi
Z: 2014 John Chambers <jc:trillian.mit.edu>
N: Repeat added to match the instructions.
M: 3/4
L: 1/8
K: C
% - - - - - - - - - - - - - - - - - - - - - - - - -
C2 |\
E2G2G2 | G2c2B2 | A2F2F2 | F4c2 |\
F2c2F2 | E2c2E2 | C2_B2A2 | G4c2 |\
A2F2F2 | A2c2c2 | E2C2EF | G4c2 |
F2d2F2 | E2C2c2 | E2C2C2 | C4 |: e2 |\
f2a2f2 | e2c2c2 | F2d2e2 | f4g2 |\
c2a2c2 | B2G2g2 | B2G2B2 | c4 :|
% - - - - - - - - - - - - - - - - - - - - - - - - -
%%center The 1st strain but once the last twice.
%%begintext align
%% The 1st and 2d Cu. foots it, then clap hands, foot
%% it again, clap as before, the 1st Cu. cast of .| the
%% 1st Cu. cast up, again then cast down to the
%% Bottom and turn .| then cast up at top and
%% cast in the 2d Cu. place and turn :|
%%endtext
% - - - - - - - - - - - - - - - - - - - - - - - - -
%%sep 2 4 300
